X: 18404
T: Hunt, The
R: hornpipe
M: 4/4
K: Gmajor
|:(3DEF|~G3B AGED|{d}~c3 A BGED|{A}G2GB {B}AGED|EAAG (3ABc BA|
{A}GABG AGED|~c3d ef (3gfe|{e}dBGB {B}AGED|EGGF {F}G2:|
|:(3DEF|GABc {c}d2 d2|(3efg fd {d}e2 d2|{d}e2d2 {d}g2d2|{d}edBc dBGB|
{B}c2 {B}cB cdec|{c}B2 BA BcdB|{B}A2 AB {B}AGED|~g3b (3agf ge|
{e}dBGB {B}AGED|~c3d ef (3gfe|{e}dBGB {B}AGED|EGGF {F}G2:|

